icons/hexagon-arrow-right.svg

<svg xmlns="http://www.w3.org/2000/svg" width="24" height="24" viewBox="0 0 24 24">
  <path d="M16.3173342,1 C17.0224657,1 17.6754933,1.37131518 18.0360686,1.97728201 L23.3914405,10.977282 C23.7664613,11.6075253 23.7664613,12.3924747 23.3914405,13.022718 L18.0360686,22.022718 C17.6754933,22.6286848 17.0224657,23 16.3173342,23 L7.68266576,23 C6.97753431,23 6.32450667,22.6286848 5.96393136,22.022718 L0.608559463,13.022718 C0.233538656,12.3924747 0.233538656,11.6075253 0.608559463,10.977282 L5.96393136,1.97728201 C6.32450667,1.37131518 6.97753431,1 7.68266576,1 L16.3173342,1 Z M17.7812939,11.375 L17.7742939,11.368 L17.7633128,11.3538862 L17.7633128,11.3538862 L17.7071068,11.2928932 L14.0502525,7.63603897 L13.9560452,7.55285036 C13.563754,7.24782547 12.9965229,7.27555501 12.636039,7.63603897 C12.2455147,8.02656326 12.2455147,8.65972824 12.636039,9.05025253 L12.636039,9.05025253 L14.586,10.9991458 L7,11 L6.88337887,11.0067277 C6.38604019,11.0644928 6,11.4871642 6,12 C6,12.5522847 6.44771525,13 7,13 L7,13 L14.586,12.9991458 L12.636039,14.9497475 L12.5528504,15.0439548 C12.2478255,15.436246 12.275555,16.0034771 12.636039,16.363961 C13.0265633,16.7544853 13.6597282,16.7544853 14.0502525,16.363961 L14.0502525,16.363961 L17.7071068,12.7071068 L17.7803112,12.625449 C17.7826022,12.6225945 17.7848777,12.6197272 17.7902954,12.6128994 C17.7970905,12.6041603 17.8037205,12.5953343 17.8099369,12.5866395 C17.8245831,12.5664533 17.8384932,12.5456983 17.8521085,12.5238 C17.8613648,12.5087703 17.8701866,12.4935488 17.8782035,12.4786822 C17.8881407,12.4604898 17.897529,12.4419547 17.9063266,12.4232215 L17.9063266,12.4232215 L17.928896,12.3710585 C17.9366843,12.3515792 17.9438775,12.3317977 17.9502619,12.3121425 C17.9552713,12.2968513 17.9599023,12.2814633 17.964279,12.2658396 C17.9701664,12.2444365 17.9753602,12.2227461 17.9797599,12.2007258 C17.9832818,12.1834538 17.9863441,12.1661068 17.9889807,12.1489612 L17.9889807,12.1489612 L17.9962939,12.075 L17.9972736,12.0740195 L17.9982669,12.0590314 L17.999,12.0181458 L18,12 L18,12 L17.9998167,11.9806591 L17.9982669,11.9409686 L17.9982669,11.9409686 L17.9960225,11.9101982 C17.994252,11.8903051 17.991899,11.8705796 17.9889822,11.8515331 C17.9863719,11.834051 17.9832978,11.8166247 17.9798348,11.7992059 C17.9753602,11.7772539 17.9701664,11.7555635 17.9641549,11.734007 C17.9598259,11.7182588 17.9551048,11.7025958 17.9501291,11.6872762 C17.9440997,11.6689468 17.9375547,11.6508514 17.930613,11.6333026 C17.9226898,11.613165 17.9140881,11.5932325 17.9044938,11.5729619 C17.8959557,11.5549095 17.8868931,11.5371537 17.8776583,11.5201698 C17.8701389,11.5064305 17.8622728,11.4928304 17.8539326,11.4793398 C17.8410808,11.4583066 17.8274737,11.4377852 17.8135366,11.4182204 L17.8135366,11.4182204 L17.7818534,11.3764773 L17.7818534,11.3764773 L17.7792939,11.374 L17.7812939,11.375 Z"/>
</svg>

<svg xmlns="http://www.w3.org/2000/svg" viewBox="0 0 24 24">
  <path d="M16.32 1a2 2 0 0 1 1.72.98l5.35 9a2 2 0 0 1 0 2.04l-5.35 9a2 2 0 0 1-1.72.98H7.68a2 2 0 0 1-1.72-.98l-5.35-9a2 2 0 0 1 0-2.04l5.35-9A2 2 0 0 1 7.68 1h8.64zm1.46 10.38v-.01l-.02-.02-.05-.06-3.66-3.65-.1-.09a1 1 0 0 0-1.31 1.5L14.59 11H6.88A1 1 0 0 0 7 13h7.59l-1.95 1.95-.09.1a1 1 0 0 0 1.5 1.31l3.66-3.65.07-.08a3 3 0 0 0 .1-.15l.03-.06.02-.05a.95.95 0 0 0 .06-.22v-.13L18 12v-.09a.94.94 0 0 0-.1-.34 1.06 1.06 0 0 0-.09-.15l-.03-.04z"/>
</svg>
